resources/haticons/SVG/pagebreak.svg

<!-- Generated by IcoMoon.io -->
<svg version="1.1" xmlns="http://www.w3.org/2000/svg" width="24" height="24" viewBox="0 0 24 24">
<title>pagebreak</title>
<path d="M6 9v-9h18v9h-1.5v-7.5h-15v7.5zM24 13.5v10.5h-18v-10.5h1.5v9h15v-9zM12 10.5h3v1.5h-3zM7.5 10.5h3v1.5h-3zM16.5 10.5h3v1.5h-3zM21 10.5h3v1.5h-3zM0 6.75l4.5 4.5-4.5 4.5z"></path>
</svg>

<svg xmlns="http://www.w3.org/2000/svg" width="24" height="24"><path d="M6 9V0h18v9h-1.5V1.5h-15V9zm18 4.5V24H6V13.5h1.5v9h15v-9zm-12-3h3V12h-3zm-4.5 0h3V12h-3zm9 0h3V12h-3zm4.5 0h3V12h-3zM0 6.75l4.5 4.5-4.5 4.5z"/></svg>
